X:560
T:Miss MacLean
R:Reel
B:The Athole Collection
M:C|
L:1/8
K:G Minor
c|BGDG BGdB|AFCF AFcA|BGDG BGdB|cAFA BGG:|
d|gabg dgBg|fgfc AFcA|gabg dgBg|cAdc BGGd|gabg dgBg|
fgfc AFcA|GABc dBfd|cAFA ~BGG||

